public/piece/california/wN.svg

<?xml version="1.0" encoding="UTF-8"?>
<svg xmlns="http://www.w3.org/2000/svg" xmlns:xlink="http://www.w3.org/1999/xlink" width="100" height="100" viewBox="-50 -92.5 398.041 510.02" version="1.1">
<defs>
<clipPath id="clip1">
  <path d="M 0 0 L 308.039062 0 L 308.039062 395.019531 L 0 395.019531 Z M 0 0 "/>
</clipPath>
</defs>
<g id="surface1" transform="translate(0 -20)">
<path style=" stroke:none;fill-rule:nonzero;fill:rgb(80.000305%,80.000305%,80.000305%);fill-opacity:1;" d="M 39.136719 363.308594 C 66.4375 371.472656 106.089844 380.0625 154.300781 379.574219 C 198.707031 379.121094 235.46875 371.117188 261.574219 363.308594 C 261.113281 361.632812 260.40625 358.789062 259.613281 355.253906 C 256.617188 341.933594 252.199219 313.835938 261.574219 284.179688 C 274.429688 243.515625 307.5 192.917969 285.09375 118.230469 C 261.355469 39.101562 150.6875 15.425781 150.6875 15.425781 L 152.492188 52.472656 L 23.21875 146.183594 C 15.015625 152.128906 13.023438 163.46875 18.613281 171.914062 C 21.265625 175.921875 24.011719 180.453125 26.335938 185.105469 C 28.617188 189.664062 39.371094 206.195312 46.046875 210.496094 C 51.460938 213.988281 58.4375 213.773438 63.675781 210.023438 C 71.632812 204.328125 81.625 191.652344 109.636719 194.363281 C 183.730469 207.011719 202.191406 166.597656 202.191406 166.597656 C 202.191406 166.597656 190.445312 190.722656 142.664062 213.183594 C 92.855469 232.289062 60.324219 264.816406 43.777344 319.871094 C 35.882812 346.128906 39.136719 363.308594 39.136719 363.308594 "/>
<path style=" stroke:none;fill-rule:nonzero;fill:rgb(100%,100%,100%);fill-opacity:1;" d="M 27.363281 179.964844 L 183.453125 94.410156 C 183.453125 94.410156 201.964844 85.15625 192.707031 66.644531 C 188.570312 58.367188 156.941406 22.621094 156.941406 22.621094 L 156.941406 59.644531 L 18.109375 161.453125 Z M 27.363281 179.964844 "/>
<path style=" stroke:none;fill-rule:nonzero;fill:rgb(100%,100%,100%);fill-opacity:1;" d="M 215.558594 173.796875 C 183.679688 227.269531 145.457031 255.199219 123.859375 279.878906 C 105.828125 300.488281 92.832031 349.3125 93.859375 369.878906 C 94.480469 382.246094 42.789062 359.933594 42.789062 359.933594 L 56.160156 296.171875 L 83.925781 243.726562 L 129.175781 210.816406 Z M 215.558594 173.796875 "/>
<g clip-path="url(#clip1)" clip-rule="nonzero">
<path style=" stroke:none;fill-rule:nonzero;fill:rgb(0%,0%,0%);fill-opacity:1;" d="M 53.941406 351.472656 C 86.640625 360.230469 120.285156 364.507812 154.144531 364.148438 C 184.226562 363.84375 214.144531 359.890625 243.28125 352.390625 C 239.757812 333.425781 238.167969 307.046875 246.867188 279.53125 C 249.605469 270.867188 253.089844 262.074219 256.78125 252.765625 C 270.804688 217.375 286.699219 177.265625 270.320312 122.664062 C 255.230469 72.367188 197.871094 46.65625 167.148438 36.246094 L 167.902344 51.71875 C 168.15625 56.925781 165.765625 61.90625 161.546875 64.960938 L 32.269531 158.671875 C 30.785156 159.75 30.433594 161.828125 31.476562 163.398438 C 34.878906 168.535156 37.789062 173.519531 40.132812 178.210938 C 42.210938 182.367188 50.882812 194.886719 54.429688 197.546875 C 54.511719 197.578125 54.625 197.53125 54.699219 197.480469 C 55.496094 196.90625 56.519531 196.074219 57.699219 195.109375 C 65.84375 188.464844 80.996094 176.097656 111.121094 179.007812 C 111.492188 179.042969 111.863281 179.09375 112.230469 179.15625 C 157.992188 186.96875 177.792969 172.445312 184.921875 164.515625 C 187.410156 161.46875 188.417969 159.644531 188.453125 159.582031 C 188.359375 159.753906 188.320312 159.84375 188.320312 159.84375 L 195.164062 159.105469 C 204.609375 158.082031 213.449219 163.917969 216.222656 173.003906 C 216.191406 173.070312 216.136719 173.1875 216.058594 173.347656 C 215.972656 173.527344 215.839844 173.789062 215.65625 174.132812 C 215.117188 175.152344 214.191406 176.765625 212.804688 178.765625 C 206.242188 188.363281 188.785156 208.546875 149.226562 227.144531 C 148.886719 227.304688 148.539062 227.453125 148.1875 227.585938 C 100.84375 245.742188 73.199219 275.574219 58.546875 324.3125 C 55.117188 335.734375 54.113281 345.113281 53.941406 351.472656 M 150.347656 395.019531 C 111.191406 395.019531 72.316406 389.328125 34.71875 378.089844 C 29.195312 376.4375 25.050781 371.84375 23.980469 366.179688 C 23.574219 364.042969 20.277344 344.457031 29.003906 315.433594 C 43.652344 266.710938 70.257812 232.753906 111.828125 210.328125 C 110.441406 210.125 109.046875 209.90625 107.628906 209.667969 C 90.535156 208.132812 83.757812 213.664062 77.207031 219.011719 C 75.753906 220.199219 74.246094 221.425781 72.65625 222.566406 C 62.191406 230.058594 48.460938 230.410156 37.6875 223.460938 C 26.375 216.167969 14.011719 194.953125 12.539062 192.003906 C 10.75 188.425781 8.464844 184.53125 5.75 180.429688 C -4.441406 165.035156 -0.746094 144.503906 14.164062 133.695312 L 136.679688 44.882812 L 135.277344 16.175781 C 135.046875 11.390625 137.046875 6.769531 140.695312 3.671875 C 144.347656 0.566406 149.234375 -0.660156 153.914062 0.339844 C 158.796875 1.382812 273.808594 26.925781 299.871094 113.796875 C 319.328125 178.664062 299.753906 228.0625 285.460938 264.128906 C 281.980469 272.914062 278.691406 281.210938 276.285156 288.832031 C 268.257812 314.222656 271.820312 339.230469 274.664062 351.875 C 275.625 356.164062 276.273438 358.574219 276.449219 359.210938 C 278.675781 367.300781 274.035156 375.6875 265.996094 378.089844 C 229.753906 388.925781 192.226562 394.617188 154.457031 395 C 153.089844 395.011719 151.714844 395.019531 150.347656 395.019531 "/>
</g>
<path style="fill-rule:nonzero;fill:rgb(100%,100%,100%);fill-opacity:1;stroke-width:30;stroke-linecap:round;stroke-linejoin:round;stroke:rgb(0%,0%,0%);stroke-opacity:1;stroke-miterlimit:10;" d="M -0.00119375 0.001475 C 23.662869 -7.1079 58.178494 -14.611806 100.166775 -14.057119 C 137.924588 -13.561025 169.21365 -6.709463 191.549588 0.001475 " transform="matrix(1,0,0,-1,55.0051,312.0796)"/>
<path style=" stroke:none;fill-rule:nonzero;fill:rgb(0%,0%,0%);fill-opacity:1;" d="M 169.683594 113.578125 C 169.683594 121.953125 162.894531 128.742188 154.519531 128.742188 C 146.144531 128.742188 139.355469 121.953125 139.355469 113.578125 C 139.355469 105.203125 146.144531 98.417969 154.519531 98.417969 C 162.894531 98.417969 169.683594 105.203125 169.683594 113.578125 "/>
</g>
</svg>

<svg xmlns="http://www.w3.org/2000/svg" width="100" height="100" viewBox="-50 -92.5 398.041 510.02"><defs><clipPath id="a"><path d="M0 0h308.04v395.02H0Zm0 0"/></clipPath></defs><path d="M39.137 363.309A388.405 388.405 0 0 0 154.3 379.574a388.308 388.308 0 0 0 107.273-16.265c-.46-1.676-1.168-4.52-1.96-8.055-2.997-13.32-7.415-41.418 1.96-71.074 12.856-40.664 45.926-91.262 23.52-165.95C261.355 39.102 150.688 15.426 150.688 15.426l1.804 37.047-129.273 93.71c-8.203 5.946-10.196 17.286-4.606 25.731 2.653 4.008 5.399 8.54 7.723 13.191 2.281 4.56 13.035 21.09 19.71 25.391 5.415 3.492 12.392 3.277 17.63-.473 7.957-5.695 17.949-18.37 45.96-15.66 74.094 12.649 92.555-27.765 92.555-27.765s-11.746 24.125-59.527 46.586c-49.809 19.105-82.34 51.632-98.887 106.687-7.894 26.258-4.64 43.438-4.64 43.438" style="stroke:none;fill-rule:nonzero;fill:#ccc;fill-opacity:1" transform="translate(0 -20)"/><path d="m27.363 179.965 156.09-85.555s18.512-9.254 9.254-27.765c-4.137-8.278-35.766-44.024-35.766-44.024v37.024L18.11 161.453ZM215.559 173.797c-31.88 53.473-70.102 81.402-91.7 106.082-18.03 20.61-31.027 69.433-30 90 .621 12.367-51.07-9.945-51.07-9.945l13.371-63.762 27.766-52.445 45.25-32.91Zm0 0" style="stroke:none;fill-rule:nonzero;fill:#fff;fill-opacity:1" transform="translate(0 -20)"/><g clip-path="url(#a)" transform="translate(0 -20)"><path d="M53.941 351.473c32.7 8.757 66.344 13.035 100.204 12.675 30.082-.304 60-4.257 89.136-11.757-3.523-18.965-5.113-45.344 3.586-72.86 2.738-8.664 6.223-17.457 9.914-26.765 14.024-35.391 29.918-75.5 13.54-130.102-15.09-50.297-72.45-76.008-103.173-86.418l.754 15.473a15.42 15.42 0 0 1-6.355 13.242L32.27 158.67c-1.485 1.079-1.836 3.157-.793 4.727 3.402 5.137 6.312 10.122 8.656 14.813 2.078 4.156 10.75 16.676 14.297 19.336.082.031.195-.016.27-.067.796-.574 1.82-1.406 3-2.37 8.144-6.645 23.296-19.012 53.421-16.102.371.035.742.086 1.11.148 45.761 7.813 65.562-6.71 72.69-14.64 2.49-3.047 3.497-4.871 3.532-4.934-.094.172-.133.262-.133.262l6.844-.739c9.445-1.023 18.285 4.813 21.059 13.899-.032.066-.086.184-.164.344a20.9 20.9 0 0 1-.403.785c-.539 1.02-1.465 2.633-2.851 4.633-6.563 9.597-24.02 29.78-63.578 48.379-.34.16-.688.308-1.04.44-47.343 18.157-74.988 47.99-89.64 96.727-3.43 11.422-4.434 20.801-4.606 27.16m96.407 43.548a403.362 403.362 0 0 1-115.63-16.93 15.426 15.426 0 0 1-10.738-11.91c-.406-2.137-3.703-21.723 5.024-50.746 14.648-48.723 41.254-82.68 82.824-105.106a201.598 201.598 0 0 1-4.2-.66c-17.093-1.535-23.87 3.996-30.421 9.344-1.453 1.187-2.96 2.414-4.55 3.554-10.466 7.493-24.196 7.844-34.97.895-11.312-7.293-23.675-28.508-25.148-31.457-1.789-3.578-4.074-7.473-6.789-11.574-10.191-15.395-6.496-35.926 8.414-46.735L136.68 44.883l-1.403-28.707A15.427 15.427 0 0 1 153.914.34c4.883 1.043 119.895 26.586 145.957 113.457 19.457 64.867-.117 114.266-14.41 150.332-3.48 8.785-6.77 17.082-9.176 24.703-8.027 25.39-4.465 50.398-1.62 63.043.96 4.29 1.608 6.7 1.784 7.336 2.227 8.09-2.414 16.476-10.453 18.879a403.563 403.563 0 0 1-115.648 16.93" style="stroke:none;fill-rule:nonzero;fill:#000;fill-opacity:1"/></g><path d="M-.001.001a333.014 333.014 0 0 1 100.168-14.058A332.845 332.845 0 0 1 191.55 0" style="fill-rule:nonzero;fill:#fff;fill-opacity:1;stroke-width:30;stroke-linecap:round;stroke-linejoin:round;stroke:#000;stroke-opacity:1;stroke-miterlimit:10" transform="matrix(1 0 0 -1 55.005 292.08)"/><path d="M169.684 113.578c0 8.375-6.79 15.164-15.164 15.164-8.375 0-15.165-6.789-15.165-15.164s6.79-15.16 15.165-15.16 15.164 6.785 15.164 15.16" style="stroke:none;fill-rule:nonzero;fill:#000;fill-opacity:1" transform="translate(0 -20)"/></svg>
